src/renderer/assets/timer/icon-tick-fill.svg

<?xml version="1.0" encoding="UTF-8"?>
<svg width="98px" height="98px" viewBox="0 0 98 98" version="1.1" xmlns="http://www.w3.org/2000/svg" xmlns:xlink="http://www.w3.org/1999/xlink">
    <!-- Generator: Sketch 57 (83077) - https://sketch.com -->
    <title>Icon/Tick Fill</title>
    <desc>Created with Sketch.</desc>
    <g id="Desktop" stroke="none" stroke-width="1" fill="none" fill-rule="evenodd">
        <g id="Modal-Complete" transform="translate(-293.000000, -119.000000)" fill="#33CCFF">
            <g id="Icon/Tick-Fill" transform="translate(293.000000, 119.000000)">
                <path d="M49,0 C76.0619527,0 98,21.9380473 98,49 C98,76.0619527 76.0619527,98 49,98 C21.9380473,98 0,76.0619527 0,49 C0,21.9380473 21.9380473,0 49,0 Z M69.6906965,29.2930947 L40.5956732,57.9111504 L28.5940876,45.9095649 C28.2069126,45.5223899 27.5813765,45.5201914 27.1868205,45.9147473 L21.7593935,51.3421743 C21.3693564,51.7322115 21.3760606,52.371291 21.7602421,52.7554725 L39.8885999,70.8838302 C40.2791057,71.274336 40.9124471,71.2783533 41.3111851,70.8849318 L76.5223571,36.1432421 C76.9175234,35.7533447 76.9262002,35.1256015 76.5316442,34.7310456 L71.1042172,29.3036186 C70.7141801,28.9135814 70.0834632,28.9067668 69.6906965,29.2930947 Z" id="Combined-Shape"></path>
            </g>
        </g>
    </g>
</svg>

<svg xmlns="http://www.w3.org/2000/svg" width="98" height="98" viewBox="0 0 98 98"><path fill="#3CF" fill-rule="evenodd" d="M49 0c27.062 0 49 21.938 49 49S76.062 98 49 98 0 76.062 0 49 21.938 0 49 0m20.69 29.293L40.597 57.911 28.594 45.91a.991.991 0 0 0-1.407.005l-5.428 5.427c-.39.39-.383 1.03.001 1.413l18.13 18.129c.39.39 1.023.394 1.422 0l35.211-34.74a.99.99 0 0 0 .01-1.413l-5.428-5.427a1.003 1.003 0 0 0-1.413-.01"/></svg>
